X:190
T:Mere Dieu, virge senee
T:Les miracles de Notre-Dame
C:Gautier de Coincy (1177-1236)
%***Missing time signature meta command in MIDI file
M:4/4
L:1/8
Q:1/4=92
% Last note suggests minor mode tune
K:C 
V:1 clef=treble
c2 de (3dcB AG | AB dc cB B2 | Az3 B2 G2 | AB c2 BA AG | 
A3z (3AGA c2 | (3cde (3dcB AG AB | dc cB B2 Az | z2 e2 g2 (3fed | 
de f2 e/2d/2c/2d/2 c3/2z/2 | z2 d2 (3cBA c2 | d2 e2 gf d2 | (3cBA A/2B/2c/2B/2 BA G3/2z/2 | 
z2 G2 B2 d2 | e2 dc de e2 | g2 ga (3fed c3/2z/2 | z2 d2 ef (3eed | 
(3cBA B/2c/2B/2A/2 AG A2- | A4 |]
V:2
A,8 | A,8 | A,8 | A,8 | 
A,8 | A,8 | A,8 | A,8- | 
A,4 A,4- | A,8 | A,8- | A,4 A,4- | 
A,8 | A,8- | A,4 A,4- | A,8 | 
A,8- | A,4 |]





